img/discount/R2.svg

<svg width="62" height="65" viewBox="0 0 62 65" fill="none" xmlns="http://www.w3.org/2000/svg">
<path opacity="0.4" d="M42.4991 33.1947C44.0799 32.2293 45.4639 31.0136 46.657 29.5538C47.8579 28.0845 48.8014 26.3963 49.5007 24.4992C50.2135 22.5655 50.5554 20.3922 50.5554 18.0025L50.5554 17.9996C50.5478 15.4258 50.1763 13.0952 49.4232 10.9986C48.6506 8.8477 47.3354 7.02258 45.5165 5.53097C43.6901 4.03316 41.3071 2.91328 38.4144 2.14462C35.5066 1.37193 31.9234 0.992682 27.7004 1.00011C27.7002 1.00011 27.7001 1.00011 27.6999 1.00011L1.99914 1.02218L1 1.02304V2.02218V4.39127V5.2514L1.85046 5.38003L8.6382 6.40663L8.6806 57.5745L2.45831 58.6454L1.62793 58.7883V59.6309V62V63.0009L2.62883 63L27.2645 62.9779L28.2636 62.977V61.9779V59.6088V58.7331L27.3955 58.6176L19.2526 57.5337L19.2325 36.6891L28.3729 36.6828L44.835 62.5081L45.1302 62.9711L45.6793 62.9706L59.9321 62.9558L60.931 62.9548V61.9558V59.5868V58.7558L60.1141 58.6037L54.0864 57.4812L38.9231 34.9532C40.1519 34.4924 41.342 33.9067 42.4991 33.1947ZM42.4991 33.1947C42.4985 33.195 42.498 33.1953 42.4975 33.1957L41.9764 32.3423L42.5005 33.1938C42.5 33.1941 42.4996 33.1944 42.4991 33.1947ZM38.9293 12.9684L38.9298 12.9698C39.4433 14.4347 39.7205 16.316 39.7205 18.6279C39.7205 20.8549 39.4792 22.7234 39.019 24.2522C38.562 25.7391 37.8263 26.9262 36.8167 27.8533L36.8142 27.8557C35.8068 28.7873 34.453 29.4941 32.7102 29.9555C30.9575 30.4195 28.7565 30.6653 26.088 30.6653H26.0871L19.2306 30.6717L19.2104 7.03837L25.8042 7.03198L25.806 7.03198C28.4126 7.02476 30.6076 7.23445 32.402 7.62691C34.1604 8.0131 35.5457 8.65526 36.5947 9.51889C37.6384 10.3782 38.422 11.5145 38.9293 12.9684Z" stroke="#FFD32E" stroke-width="2"/>
</svg>

<svg width="62" height="65" fill="none" xmlns="http://www.w3.org/2000/svg"><path opacity=".4" d="M42.5 33.195a16.346 16.346 0 004.157-3.641c1.2-1.47 2.144-3.158 2.844-5.055.713-1.933 1.054-4.107 1.054-6.496V18c-.007-2.574-.379-4.905-1.132-7.001-.772-2.151-2.088-3.976-3.907-5.468-1.826-1.498-4.209-2.618-7.102-3.386C35.507 1.372 31.924.993 27.7 1c0 0 0 0 0 0L2 1.022l-1 .001v4.228l.85.129 6.788 1.027.043 51.168-6.223 1.07-.83.143V63h1l24.637-.022.999-.001v-4.244l-.869-.115-8.142-1.084-.02-20.845 9.14-.006 16.462 25.825.295.463h.55l14.252-.015.999-.001v-4.199l-.817-.152-6.028-1.123-15.163-22.528a20.639 20.639 0 003.576-1.758zm0 0h-.002l-.522-.853.525.852h-.002zm-3.57-20.227v.002c.513 1.465.79 3.346.79 5.658 0 2.227-.24 4.095-.701 5.624-.457 1.487-1.193 2.674-2.202 3.601l-.003.003c-1.007.931-2.361 1.638-4.104 2.1-1.753.463-3.954.71-6.622.71h0l-6.857.006-.02-23.634 6.593-.006h.002c2.607-.007 4.802.202 6.596.595 1.758.386 3.144 1.028 4.193 1.892 1.043.86 1.827 1.995 2.334 3.45z" stroke="#FFD32E" stroke-width="2"/></svg>
